X:1
T: The American Husband
N:
C:Pat Shaw
S:aka Her Man
A:
O:
R:
M:4/4
K:G
I:speed 160
%W: A1
% voice 1 (1 lines, 50 notes)
K:G
M:4/4
L:1/16
D2 |G4 e4 d3 B A2 G2 |A2 B2 G2 E2E2 D2 E2 F2 |G4 g4 f3 e d2 B2 |e8e2 d2 e2 f2 |g4 e4 d3 B A2 G2 |A2 B2 G2 E2E2 _E2 D2 =E2 |=F4 D4 E2 G4 E2 |G8G2 D2 E2 D2 |
%W: A2
% voice 1 (1 lines, 49 notes)
G4 e4 d3 B A2 G2 |A2 B2 G2 E2E2 D2 E2 F2 |G4 g4 f3 e d2 B2 |e8e2 d2 e2 f2 |g4 e4 d3 B A2 G2 |A2 B2 G2 E2E2 _E2 D2 =E2 |=F4 D4 E2 G4 E2 |G8G2 d2 e2 d2 |
%W: B1
% voice 1 (1 lines, 55 notes)
=f4 e2 d2d2 d2 e2 d2 |=f4 e2 d2d2 d2 e2 d2 |g4 e4 d3 B A2 G2 |_B2 A2 G2 A2A2 d2 e2 d2 |b4 a2 g2g2 e2 d2 B2 |_B2 A2 G2 E2E2 D2 E2 G2 |B2 d2 B2 A2A2 G2 E4 |G8G2 d2 e2 d2 |
%W: B2
% voice 1 (1 lines, 51 notes)
=f4 d2 e2e2 d2 =f4 |d2 e2e2 d2 =f4 e2 d2 |g4 e4 d3 B A2 G2 |_B2 A2 G2 A2A2 d2 e2 d2 |b4 a2 g2g2 e2 d2 B2 |_B2 A2 G2 E2E2 D2 E2 G2 |B2 d2 B2 A2A2 G2 E4 |G8G6 ||
